assets/images/icons/src/bookmark-o.svg

<?xml version="1.0" encoding="utf-8"?>
<!-- Generated by IcoMoon.io -->
<!DOCTYPE svg PUBLIC "-//W3C//DTD SVG 1.1//EN" "http://www.w3.org/Graphics/SVG/1.1/DTD/svg11.dtd">
<svg version="1.1" xmlns="http://www.w3.org/2000/svg" xmlns:xlink="http://www.w3.org/1999/xlink" width="10" height="14" viewBox="0 0 10 14">
<path fill="#444444" d="M9 2h-8v9.703l4-3.836 0.695 0.664 3.305 3.172v-9.703zM9.094 1q0.18 0 0.344 0.070 0.258 0.102 0.41 0.32t0.152 0.484v10.070q0 0.266-0.152 0.484t-0.41 0.32q-0.148 0.062-0.344 0.062-0.375 0-0.648-0.25l-3.445-3.313-3.445 3.313q-0.281 0.258-0.648 0.258-0.18 0-0.344-0.070-0.258-0.102-0.41-0.32t-0.152-0.484v-10.070q0-0.266 0.152-0.484t0.41-0.32q0.164-0.070 0.344-0.070h8.187z"></path>
</svg>

<svg xmlns="http://www.w3.org/2000/svg" width="10" height="14" viewBox="0 0 10 14"><path fill="#444" d="M9 2H1v9.703l4-3.836.695.664L9 11.703V2zm.094-1q.18 0 .344.07.258.102.41.32t.152.484v10.07q0 .266-.152.484t-.41.32q-.148.062-.344.062-.375 0-.648-.25L5.001 9.247 1.556 12.56q-.281.258-.648.258-.18 0-.344-.07-.258-.102-.41-.32t-.152-.484V1.874q0-.266.152-.484t.41-.32Q.728 1 .908 1h8.187z"/></svg>
